svg/500/sharp/style.svg

<svg xmlns="http://www.w3.org/2000/svg" width="48" height="48" viewBox="0 -960 960 960"><path d="m146.022-142.848-100-31 100-227v258Zm104-211 101 289h-101v-289Zm217.152 290.74L229.869-709.826l443.479-160.065 239.065 644.478L467.174-63.108ZM448.065-580.74q13.029 0 22.949-9.825 9.921-9.825 9.921-23.045 0-13.028-9.955-22.949-9.954-9.92-23.032-9.92t-22.915 9.954q-9.837 9.955-9.837 23.033 0 13.078 9.825 22.915t23.044 9.837Zm59.892 429.109 313.934-114.805L632.326-781.37 318.391-667.565 507.957-151.63ZM318.391-667.565 632.326-781.37 318.391-667.565Z"/></svg>

<svg xmlns="http://www.w3.org/2000/svg" width="48" height="48" viewBox="0 -960 960 960"><path d="m146.02-142.85-100-31 100-227v258Zm104-211 101 289h-101v-289ZM467.17-63.11l-237.3-646.72 443.48-160.06 239.06 644.48-445.24 162.3Zm-19.1-517.63q13.02 0 22.94-9.82 9.92-9.83 9.92-23.05 0-13.03-9.95-22.95t-23.03-9.92q-13.08 0-22.92 9.96-9.83 9.95-9.83 23.03 0 13.08 9.82 22.91 9.83 9.84 23.05 9.84Zm59.89 429.11 313.93-114.8-189.56-514.94-313.94 113.8 189.57 515.94ZM318.39-667.57l313.94-113.8-313.94 113.8Z"/></svg>
